X: 467
T: All Hands Around   #2
%S: s:2 b:10(5+5)
O: Ireland
B: Francis O'Neill: "The Dance Music of Ireland" (1907) no. 467
R: Reel
Z: Transcribed by Frank Nordberg - http://www.musicaviva.com
F: http://www.musicaviva.com/abc/tunes/ireland/oneill-1001/0467/oneill-1001-0467-1.abc
M: C|
L: 1/8
K: G
"^A"|: G2Be d2Bd |1,3 gdBd cAFA :|2 dcAB GDEF :| GBAc (3Bcd eg | fdcA G3 z |]
"^B"|: bagb a2(fa) |1,3 gfeg (fd)d2 :|2 gfef d2(ga) :| GBAc (3Bcd eg | fdcA G3 z |]
